packages/dnb-eufemia/assets/icons/above_the_line.svg

<svg width="16" height="16" viewBox="0 0 16 16" fill="none" xmlns="http://www.w3.org/2000/svg">
<path d="M7.25004 13.9997C7.25004 14.4139 7.58583 14.7497 8.00004 14.7497C8.41425 14.7497 8.75004 14.4139 8.75004 13.9997H7.25004ZM8.00004 5.99967L8.50571 5.44578C8.20959 5.17545 7.75323 5.18583 7.46971 5.46934L8.00004 5.99967ZM4.80304 8.13601C4.51015 8.4289 4.51015 8.90378 4.80304 9.19667C5.09594 9.48956 5.57081 9.48956 5.8637 9.19667L4.80304 8.13601ZM10.1092 9.16807C10.3863 9.47595 10.8605 9.50091 11.1684 9.22381C11.4763 8.94672 11.5013 8.4725 11.2242 8.16462L10.1092 9.16807ZM1.33337 1.58301C0.91916 1.58301 0.583374 1.91879 0.583374 2.33301C0.583374 2.74722 0.91916 3.08301 1.33337 3.08301V1.58301ZM2.66671 3.08301C3.08092 3.08301 3.41671 2.74722 3.41671 2.33301C3.41671 1.91879 3.08092 1.58301 2.66671 1.58301V3.08301ZM5.33337 1.58301C4.91916 1.58301 4.58337 1.91879 4.58337 2.33301C4.58337 2.74722 4.91916 3.08301 5.33337 3.08301V1.58301ZM6.66671 3.08301C7.08092 3.08301 7.41671 2.74722 7.41671 2.33301C7.41671 1.91879 7.08092 1.58301 6.66671 1.58301V3.08301ZM9.33337 1.58301C8.91916 1.58301 8.58337 1.91879 8.58337 2.33301C8.58337 2.74722 8.91916 3.08301 9.33337 3.08301V1.58301ZM10.6667 3.08301C11.0809 3.08301 11.4167 2.74722 11.4167 2.33301C11.4167 1.91879 11.0809 1.58301 10.6667 1.58301V3.08301ZM13.3334 1.58301C12.9192 1.58301 12.5834 1.91879 12.5834 2.33301C12.5834 2.74722 12.9192 3.08301 13.3334 3.08301V1.58301ZM14.6667 3.08301C15.0809 3.08301 15.4167 2.74722 15.4167 2.33301C15.4167 1.91879 15.0809 1.58301 14.6667 1.58301V3.08301ZM8.75004 13.9997V5.99967H7.25004V13.9997H8.75004ZM7.46971 5.46934L4.80304 8.13601L5.8637 9.19667L8.53037 6.53L7.46971 5.46934ZM8.00004 5.99967C7.49437 6.55357 7.49436 6.55355 7.49434 6.55354C7.49435 6.55355 7.49434 6.55354 7.49435 6.55355C7.49436 6.55356 7.4944 6.5536 7.49446 6.55365C7.49458 6.55376 7.49479 6.55395 7.49509 6.55423C7.49569 6.55477 7.49665 6.55565 7.49795 6.55684C7.50056 6.55923 7.50457 6.56291 7.50993 6.56783C7.52064 6.57766 7.53673 6.59246 7.55775 6.61187C7.5998 6.6507 7.66156 6.70797 7.73949 6.78089C7.8954 6.9268 8.11572 7.13509 8.3722 7.38354C8.88693 7.88218 9.53986 8.53542 10.1092 9.16807L11.2242 8.16462C10.622 7.49551 9.94157 6.81542 9.41587 6.30616C9.15213 6.05067 8.92545 5.83636 8.76442 5.68567C8.68388 5.6103 8.61968 5.55076 8.57539 5.50986C8.55324 5.48941 8.53606 5.47361 8.5243 5.46282C8.51842 5.45742 8.5139 5.45327 8.51078 5.45042C8.50922 5.44899 8.50801 5.44789 8.50717 5.44711C8.50674 5.44672 8.50641 5.44642 8.50617 5.4462C8.50604 5.44609 8.50595 5.446 8.50587 5.44593C8.50583 5.44589 8.50579 5.44585 8.50577 5.44584C8.50574 5.44581 8.50571 5.44578 8.00004 5.99967ZM1.33337 3.08301H2.66671V1.58301H1.33337V3.08301ZM5.33337 3.08301H6.66671V1.58301H5.33337V3.08301ZM9.33337 3.08301H10.6667V1.58301H9.33337V3.08301ZM13.3334 3.08301H14.6667V1.58301H13.3334V3.08301Z" fill="black"/>
</svg>

<svg width="16" height="16" viewBox="0 0 16 16" fill="none" xmlns="http://www.w3.org/2000/svg"><path d="M7.25 14a.75.75 0 0 0 1.5 0h-1.5ZM8 6l.506-.554a.75.75 0 0 0-1.036.023L8 6ZM4.803 8.136a.75.75 0 0 0 1.06 1.06l-1.06-1.06Zm5.306 1.032a.75.75 0 0 0 1.115-1.003L10.11 9.168ZM1.333 1.583a.75.75 0 1 0 0 1.5v-1.5Zm1.334 1.5a.75.75 0 0 0 0-1.5v1.5Zm2.666-1.5a.75.75 0 1 0 0 1.5v-1.5Zm1.334 1.5a.75.75 0 0 0 0-1.5v1.5Zm2.666-1.5a.75.75 0 1 0 0 1.5v-1.5Zm1.334 1.5a.75.75 0 0 0 0-1.5v1.5Zm2.666-1.5a.75.75 0 0 0 0 1.5v-1.5Zm1.334 1.5a.75.75 0 0 0 0-1.5v1.5ZM8.75 14V6h-1.5v8h1.5ZM7.47 5.47 4.803 8.135l1.06 1.06L8.53 6.53 7.47 5.47ZM8 6l-.506.554h.001l.003.003a15.992 15.992 0 0 1 .241.224c.156.146.377.354.633.603a37.991 37.991 0 0 1 1.737 1.784l1.115-1.003a39.483 39.483 0 0 0-1.808-1.859 52.65 52.65 0 0 0-.905-.856l-.004-.003-.001-.001L8 6ZM1.333 3.083h1.334v-1.5H1.333v1.5Zm4 0h1.334v-1.5H5.333v1.5Zm4 0h1.334v-1.5H9.333v1.5Zm4 0h1.334v-1.5h-1.334v1.5Z" fill="#000"/></svg>
